X:1
T:He Is Coming Again (Bilhorn)
T:He Is Coming Again (Bilhorn)
T:Peter Philip Bilhorn
T:Peter Philip Bilhorn, 1901
T:Public Domain Courtesy of the Cyber Hymnal™
C:Peter Philip Bilhorn
Z:Public Domain
Z:Courtesy of the Cyber Hymnal™
%%score ( 1 2 ) ( 3 4 )
L:1/8
Q:1/4=110
M:9/8
K:F
V:1 treble 
V:2 treble 
V:3 bass 
V:4 bass 
V:1
 ([FA][GB])[^G=B] | [Ac]3 [FA]3 [DG][DF][B,D] | [A,C]3 [A,F]3 [CF][CG][FA] | %3
w: 1.~Saved * by|grace, oh, won- der- ful|sto- ry, Je- sus the|
w: 2.~Saved * by|grace, and jus- ti- fied|free- ly, Je- sus the|
w: 3.~Saved * by|grace, and sanc- ti- fied|thro’ Him, Christ the As-|
w: 4.~Saved * by|grace, oh, bless- èd sal-|va- tion, Christ the Re-|
 [Fc]3 [FA]2 [FA] [FA][FG]F | [EG]6 ([FA][GB])[^G=B] | [Ac]3 [FA]3 [DG][DF][B,D] | %6
w: Sav- ior has come from on|high; Saved * by|grace, an heir to His|
w: Cru- ci- fied rose from the|grave; Saved * by|grace, oh, mar- vel- ous|
w: cend- ed now pleads for His|own; Saved * by|grace, I sing hal- le-|
w: deem- er is com- ing a-|gain; Saved * by|grace, oh, glor- i- ous|
 [A,C]3 [A,F]3 [DB][Dc][Fd] | [Fc][FA][CF] [FA]3 [EG]3 | [CF]6 ||"^Refrain" ([Ac][Bd])[Be] | %10
w: glo- ry, I shall in-|her- it it by and|by.||
w: deal- ing, Life ev- er-|last- ing to me He|gave.||
w: lu- jah! I shall be-|hold Him up- on His|throne.||
w: sta- tion, Je- sus is|com- ing, He comes to|reign.||
"^Joyful" [Af]3 [Ac]3 [df][ce][Bd] | [Ac]3 [FA]3 ([Ac][Bd])[Ac] | [ce]3 [Bd]3 [Bd][Ac][GB] | %13
w: |||
w: |||
w: |||
w: |||
 [FA]6 ([FA][GB])[^G=B] | [Ac]3 [Ac]3 [Ac][Bd][Be] | [Af]3 [Ac]3 [FB][Fc][Bd] | %16
w: |||
w: |||
w: |||
w: |||
 [Ac]3 [FA]3 [FA]<!fermata![FA][EG] | [CF]6 |] %18
w: ||
w: ||
w: ||
w: ||
V:2
 x3 | x9 | x9 | x8 F | x9 | x9 | x9 | x9 | x6 || x3 | x9 | x9 | x9 | x9 | x9 | x9 | x9 | x6 |] %18
V:3
 [F,C]2 [F,C] | [F,C]3 [F,C]3 [B,,B,][B,,B,][B,,F,] | [F,,F,]3 [F,,F,]3 [F,A,][F,B,][F,C] | %3
w: ~ ~|~ ~ ~ ~ ~|~ ~ ~ ~ ~|
 [F,A,]3 [F,C]2 [F,C] [F,C][F,B,][F,A,] | [C,C]6 [F,C]2 [F,C] | %5
w: ~ ~ ~ ~ ~ ~|~ ~ ~|
 [F,C]3 [F,C]3 [B,,B,][B,,B,][B,,F,] | F,3 [F,A,]3 [B,,B,][B,,B,][B,,B,] | %7
w: ~ ~ ~ ~ ~|~ ~ ~ ~ ~|
 [C,A,][C,C][C,A,] [C,C]3 [C,B,]3 | [F,A,]6 || [F,C]2 [F,C] | [F,C]3 [F,C]3 B,B,B, | %11
w: ~ ~ ~ ~ ~|~|Saved by|grace, oh, won- der- ful|
 [F,C]3 [F,C]3 [F,C]2 [F,C] | [C,C]3 [C,C]3 [C,C]2 [C,C] | [F,C]6 [F,C]2 [F,C] | %14
w: sto- ry, Sing it|o’er and over a-|gain; Saved by|
 [F,C]3 [F,C]3 [F,C][F,C][F,C] | [F,C]3 [F,C]3 [B,,D][A,,E][G,,F] | %16
w: grace, oh, tell of His|glo- ry; Je- sus is|
 [C,F]3 [C,C]3 [C,C]<!fermata![C,C][C,B,] | [F,A,]6 |] %18
w: com- ing, com- ing a-|gain.|
V:4
 x3 | x9 | x9 | x9 | x9 | x9 | F,3 x6 | x9 | x6 || x3 | x6 B,B,B, | x9 | x9 | x9 | x9 | x9 | x9 | %17
 x6 |] %18

